!!!COM: Palestrina, Giovanni Perluigi da
!!!OPR: Missa Alma Redemptoris mater
!!!OMD: Credo
!!!OTL: First Section
**kern	**kern	**kern	**kern	**kern	**kern
*Ibass	*Ibass	*Itenor	*Icalto	*Icalto	*Icant
!Bassus 2	!Bassus 1	!Tenor	!Altus 2	!Altus 1	!Cantus
*clefF4	*clefF4	*clefGv2	*clefG2	*clefG2	*clefG2
*k[b-]	*k[b-]	*k[b-]	*k[b-]	*k[b-]	*k[b-]
*F:ion	*F:ion	*F:ion	*F:ion	*F:ion	*F:ion
*M4/2	*M4/2	*M4/2	*M4/2	*M4/2	*M4/2
=1	=1	=1	=1	=1	=1
0r	0r	0r	1f	1r	1r
.	.	.	2.a	2r	1f
.	.	.	.	2f	.
.	.	.	4b-	.	.
=2	=2	=2	=2	=2	=2
0r	0r	0r	2cc	2f	2.a
.	.	.	2f	2d	.
.	.	.	.	.	4b-
.	.	.	2g	2e	1cc
.	.	.	2a	2f	.
=3	=3	=3	=3	=3	=3
0r	0r	0r	2.f	4B-	2dd
.	.	.	.	4c	.
.	.	.	.	4d	1ff
.	.	.	4e	4e	.
.	.	.	2d	4f	.
.	.	.	.	4g	.
.	.	.	2c	[2a	2ee
=4	=4	=4	=4	=4	=4
1r	0r	0r	1B-	2a]	1dd
.	.	.	.	2g	.
1F	.	.	1A	[1a	[1cc
=5	=5	=5	=5	=5	=5
2.A	2r	1F	2r	1a]	1cc]
.	2F	.	2a	.	.
4B-	.	.	.	.	.
2c	2F	2.A	2a	1r	1r
2F	2D	.	2a	.	.
.	.	4B-	.	.	.
=6	=6	=6	=6	=6	=6
2G	2E	1c	2g	0r	0r
2A	2F	.	1f	.	.
2B-	4BB-	2d	.	.	.
.	4C	.	.	.	.
4F	4D	2f	2d	.	.
4G	4E	.	.	.	.
=7	=7	=7	=7	=7	=7
4A	4F	2f	2.c	1r	1cc
4B-	4G	.	.	.	.
1c	2A	2e	.	.	.
.	.	.	4B-	.	.
.	2F	1d	2A	2r	1dd
2B	2G	.	2G	[2g	.
=8	=8	=8	=8	=8	=8
1c	0C	1c	2r	2g]	0ee
.	.	.	1g	2g	.
2r	.	1r	.	2.c	.
[2c	.	.	2g	.	.
.	.	.	.	4d	.
=9	=9	=9	=9	=9	=9
2c]	0r	1r	2c	1e	2r
2c	.	.	2g	.	1cc
2.F	.	2r	1a	2.f	.
.	.	[2f	.	.	2cc
4G	.	.	.	8e	.
.	.	.	.	8d	.
=10	=10	=10	=10	=10	=10
2A	0r	2f]	2cc	2c	1f
1B-	.	2f	4b-	1d	.
.	.	.	4a	.	.
.	.	2B-	2g	.	2g
2A	.	2c	2f	2c	2a
=11	=11	=11	=11	=11	=11
1G	0r	2d	1g	4B-	1.b-
.	.	.	.	4G	.
.	.	1e-	.	1g	.
1r	.	.	2r	.	.
.	.	2f	[2cc	[2f	2a
=12	=12	=12	=12	=12	=12
0r	2r	1c	2cc]	2f]	1g
.	1c	.	2cc	4e	.
.	.	.	.	4d	.
.	.	1r	2g	1e	2r
.	2c	.	2g	.	[2cc
=13	=13	=13	=13	=13	=13
0r	2.F	0r	1.a	2r	2cc]
.	.	.	.	1f	2cc
.	4G	.	.	.	.
.	2A	.	.	.	2cc
.	2B-	.	2d	2f	[2dd
=14	=14	=14	=14	=14	=14
1r	2B-	0r	1f	2B-	2dd]
.	2A	.	.	2c	1cc
2r	1G	.	1g	[1d	.
[2G	.	.	.	.	4b
.	.	.	.	.	4a
=15	=15	=15	=15	=15	=15
2G]	0r	1r	2r	2d]	4b
.	.	.	.	.	4cc
2G	.	.	1g	2d	4dd
.	.	.	.	.	4b
2.C	.	2r	.	2c	2cc
.	.	[2c	2e	2g	2cc
4D	.	.	.	.	.
=16	=16	=16	=16	=16	=16
2E	0r	2c]	2g	2e	[0cc
2F	.	2c	2f	2a	.
2F	.	2F	[1c	2a	.
2E	.	2G	.	[2g	.
=17	=17	=17	=17	=17	=17
2.F	0r	2.A	1c]	4g]	0cc]
.	.	.	.	4f	.
.	.	.	.	1f	.
8E	.	8G	.	.	.
8D	.	8F	.	.	.
1C	.	2G	1c	.	.
.	.	2G	.	2e	.
=18	=18	=18	=18	=18	=18
1F	2r	1F	2A	1f	2r
.	1F	.	1a	.	1cc
1r	.	1r	.	1f	.
.	2D	.	2b-	.	2dd
=19	=19	=19	=19	=19	=19
0r	2C	0r	2cc	2g	2ee
.	2BB-	.	2f	2.b-	2ff
.	1B-	.	2f	.	2.dd
.	.	.	.	4a	.
.	.	.	2g	[2g	.
.	.	.	.	.	4dd
=20	=20	=20	=20	=20	=20
0r	1A	1c	1a	2g]	1cc
.	.	.	.	2f	.
.	1G	1d	1r	2g	2b
.	.	.	.	2g	2b
=21	=21	=21	=21	=21	=21
2r	0r	2.e	1.g	1c	1cc
1c	.	.	.	.	.
.	.	4d	.	.	.
.	.	2e	.	2r	1cc
2A	.	2f	2a	2c	.
=22	=22	=22	=22	=22	=22
1G	0r	0g	1b	1d	0r
1C	.	.	1cc	1e	.
=23	=23	=23	=23	=23	=23
1F	2r	1c	2a	2f	2r
.	2F	.	2a	1f	2cc
1r	2D	2r	2b-	.	2dd
.	2C	[2c	[2cc	2g	2ee
=24	=24	=24	=24	=24	=24
0r	2F	2c]	2cc]	1a	1ff
.	2D	2d	2f	.	.
.	2C	2e	2g	2cc	2ee
.	2D	[2f	4f	2a	[2dd
.	.	.	4e	.	.
=25	=25	=25	=25	=25	=25
2r	2BB-	2f]	2d	2b-	2dd]
1G	2C	2e	2e	2.g	2cc
.	[1G	2d	1g	.	2b
.	.	.	.	4f	.
2C	.	2c	.	2e	2cc
=26	=26	=26	=26	=26	=26
2G	1G]	2B	1.g	2d	2dd
2C	.	2c	.	2e	1cc
1G	1r	2d	.	1d	.
.	.	[2g	2d	.	2b
=27	=27	=27	=27	=27	=27
1C	1c	2g]	2e	2r	1cc
.	.	1c	2g	2e	.
1r	1A	.	1a	1f	1r
.	.	[2d	.	.	.
=28	=28	=28	=28	=28	=28
0r	2G	4d]	2b-	2B-	2r
.	.	4e	.	.	.
.	2A	1f	1a	2c	2cc
.	1B-	.	.	1d	2f
.	.	4e	[2g	.	2g
.	.	4d	.	.	.
=29	=29	=29	=29	=29	=29
0r	2.A	2e	2g]	1c	1a
.	.	2f	1f	.	.
.	8G	.	.	.	.
.	8F	.	.	.	.
.	1G	1B-	.	1r	1b-
.	.	.	2e	.	.
=30	=30	=30	=30	=30	=30
1r	0F	1c	1f	2r	0a
.	.	.	.	1cc	.
2r	.	1f	1r	.	.
[2c	.	.	.	2f	.
=31	=31	=31	=31	=31	=31
2c]	0r	2e	2r	2g	0r
2F	.	1d	2f	2a	.
2G	.	.	1e	2b-	.
2A	.	2c	.	[2a	.
=32	=32	=32	=32	=32	=32
1B-	0r	2f	1d	2a]	0r
.	.	4e	.	2g	.
.	.	4d	.	.	.
2A	.	2e	2c	[1a	.
2D	.	[2d	2f	.	.
=33	=33	=33	=33	=33	=33
1A	1r	2d]	2e	0a]	1r
.	.	2c#	2e	.	.
1r	1D	1d	2d	.	1ff
.	.	.	2a	.	.
=34	=34	=34	=34	=34	=34
0r	2C#	1r	2a	2r	2ee
.	2D	.	2f	2a	2.ff
.	4D	1f	2d	2a	.
.	4E	.	.	.	4ee
.	4F	.	2d	2a	[2dd
.	4G	.	.	.	.
=35	=35	=35	=35	=35	=35
0r	2A	2e	1r	1a	4dd]
.	.	.	.	.	4cc
.	2F	2f	.	.	1cc
.	1G	1d	2r	1g	.
.	.	.	2g	.	2b
=36	=36	=36	=36	=36	=36
1A	0r	2c	2e	2r	1cc
.	.	2c	2f	2cc	.
2G	.	2d	2g	2b	1r
2A	.	2c	2e	2cc	.
=37	=37	=37	=37	=37	=37
2F	1r	2.c	1f	2a	0cc
2F	.	.	.	2a	.
.	.	4d	.	.	.
1c	2r	4e	1r	2g	.
.	.	4d	.	.	.
.	2A	4e	.	2c	.
.	.	4f	.	.	.
=38	=38	=38	=38	=38	=38
0r	2G	2g	0r	2d	2b
.	2A	4f	.	2c	2cc
.	.	4e	.	.	.
.	2F	2f	.	2cc	2a
.	2F	2f	.	2cc	2a
=39	=39	=39	=39	=39	=39
2r	1c	2e	2r	2cc	1g
2C	.	2e	2cc	1g	.
1G	1r	1d	1b	.	1r
.	.	.	.	2g	.
=40	=40	=40	=40	=40	=40
1A	1r	1c	2.cc	1e	1r
.	.	.	4b-	.	.
1F	2r	2c	1a	2f	2r
.	2F	4c	.	2cc	2ff
.	.	4d	.	.	.
=41	=41	=41	=41	=41	=41
1r	1c	4e	1g	2.cc	1ee
.	.	4f	.	.	.
.	.	2g	.	.	.
.	.	.	.	4b-	.
2r	2.d	4f	2r	1a	2.ff
.	.	4g	.	.	.
2D	.	4a	2d	.	.
.	4c	4f	.	.	4ee
=42	=42	=42	=42	=42	=42
2G	2B-	2g	2d	2b-	2dd
2C	2c	2e	2e	2.g	1cc
1G	1G	1d	1g	.	.
.	.	.	.	4f	.
.	.	.	.	2d	2b
=43	=43	=43	=43	=43	=43
1C	2r	2c	1g	2e	1cc
.	1c	1e	.	1g	.
1r	.	.	2.cc	.	1r
.	2F	2f	.	2a	.
.	.	.	4cc	.	.
=44	=44	=44	=44	=44	=44
0r	2c	2e	2cc	2g	0r
.	2d	2.d	2.b-	2f	.
.	1A	.	.	1e	.
.	.	8c	4a	.	.
.	.	8B-	.	.	.
.	.	2c	[2a	.	.
=45	=45	=45	=45	=45	=45
1r	1B-	2d	2a]	1d	1r
.	.	2G	2g	.	.
2r	1A	1r	1a	2e	[1cc
[2F	.	.	.	[2a	.
=46	=46	=46	=46	=46	=46
2F]	0r	0r	2.f	2a]	2cc]
2BB-	.	.	.	2b-	2dd
.	.	.	4f	.	.
2F	.	.	2f	2a	2cc
2G	.	.	2d	2g	2b-
=47	=47	=47	=47	=47	=47
2D	0r	0r	2d	2f	2a
2F	.	.	2c	2f	2a
1C	.	.	1c	1e	1g
=48	=48	=48	=48	=48	=48
1F	2r	2r	2c	0f	2a
.	1F	1c	1a	.	1ff
1r	.	.	.	.	.
.	2BB-	2d	2b-	.	2ff
=49	=49	=49	=49	=49	=49
0r	2F	2c	2a	2r	2ff
.	2G	2B-	2g	2g	2dd
.	1D	1A	2f	2a	1dd
.	.	.	[2a	[2f	.
=50	=50	=50	=50	=50	=50
0r	1F	1A	4a]	4f]	1cc
.	.	.	4g	4e	.
.	.	.	1f	2f	.
.	1C	1G	.	2g	1cc
.	.	.	2e	2c	.
=51	=51	=51	=51	=51	=51
0r	2F	0A	2f	2c	2a
.	2F	.	2a	2f	2cc
.	2F	.	2a	1f	2cc
.	2F	.	2a	.	2cc
=52	=52	=52	=52	=52	=52
0r	1D	0r	1f	2a	1dd
.	.	.	.	2b-	.
.	2C	.	2g	2cc	2ee-
.	2C	.	2a	2cc	2ee-
=53	=53	=53	=53	=53	=53
2r	0BB-	2r	2b-	2f	0dd
2B-	.	2d	2f	2b-	.
2B-	.	2f	2d	2b-	.
2B-	.	2f	2d	2b-	.
=54	=54	=54	=54	=54	=54
1G	0r	1g	1d	1b-	0r
2F	.	2c	2f	2a	.
2F	.	2d	2f	2a	.
=55	=55	=55	=55	=55	=55
1E-	0r	1e-	1b-	1g	1r
2BB-	.	1d	2b-	2f	1dd
2B-	.	.	2b-	2f	.
=56	=56	=56	=56	=56	=56
1F	1r	1r	1a	1f	1cc
2BB-	1B-	1d	2b-	[1f	2b-
[2B-	.	.	2b-	.	2dd
=57	=57	=57	=57	=57	=57
4B-]	1F	1c	2cc	2f]	2.ff
8A	.	.	.	.	.
8G	.	.	.	.	.
2A	.	.	2f	2c	.
.	.	.	.	.	4ee-
1B-	2BB-	2B-	1f	2d	2.dd
.	[2B-	2d	.	2B-	.
.	.	.	.	.	4cc
=58	=58	=58	=58	=58	=58
1F	4B-]	2.f	2r	2r	2dd
.	8A	.	.	.	.
.	8G	.	.	.	.
.	2A	.	2a	2c	2.cc
.	.	4e-	.	.	.
1BB-	1B-	1d	2f	2d	.
.	.	.	.	.	4b-
.	.	.	2d	[2f	2b-
=59	=59	=59	=59	=59	=59
2r	0F	2c	1f	2f]	2a
2BB-	.	2B-	.	2d	1b-
1F	.	1c	1f	1c	.
.	.	.	.	.	2a
=60	=60	=60	=60	=60	=60
0BB-	1r	1B-	1f	1d	1b-
.	1B-	1f	1r	1b-	1dd
=61	=61	=61	=61	=61	=61
0r	1B-	1f	0r	1b-	1dd
.	1F	1f	.	1a	1cc
=62	=62	=62	=62	=62	=62
0r	1G	1d	0r	1g	1b
.	1c	1e	.	1g	1cc
=63	=63	=63	=63	=63	=63
1r	0F	1f	1r	1a	1cc
1F	.	1c	1f	1a	1r
=64	=64	=64	=64	=64	=64
1F	0r	1c	1f	1a	0r
1C	.	1c	1e	1g	.
=65	=65	=65	=65	=65	=65
1D	0r	1A	1d	1f#	0r
1G	.	1B	1d	1g	.
=66	=66	=66	=66	=66	=66
[0C	2r	1c	2e	2g	2r
.	1c	.	1g	1cc	1ee
.	.	1r	.	.	.
.	2c	.	2g	2cc	2ee
=67	=67	=67	=67	=67	=67
1C]	1c	0r	1g	1cc	1ee
1r	1F	.	1cc	1a	1ff
=68	=68	=68	=68	=68	=68
0r	1A	0r	1cc	1a	1ee
.	1B-	.	1b-	1f	1dd
=69	=69	=69	=69	=69	=69
1r	0F	1r	1a	1f	1cc
1F	.	1A	1cc	1a	1ff
=70	=70	=70	=70	=70	=70
1F	1r	1A	1cc	1f	1ff
1BB-	1B-	2B-	1b-	1f	[1dd
.	.	[2d	.	.	.
=71	=71	=71	=71	=71	=71
1D	1F	2d]	0a	1f	1dd]
.	.	4c	.	.	.
.	.	4B-	.	.	.
1F	1A	2A	.	[1f	[1cc
.	.	2F	.	.	.
=72	=72	=72	=72	=72	=72
0C	1c	0G	0g	2f]	1cc]
.	.	.	.	4e	.
.	.	.	.	4d	.
.	1c	.	.	1e	1cc
=73	=73	=73	=73	=73	=73
[0F	1.A	[0F	[0a	[0f	[0cc
.	2F	.	.	.	.
=74	=74	=74	=74	=74	=74
0F]	0F	0F]	0a]	0f]	0cc]
*-	*-	*-	*-	*-	*-
!!!CDT: 1525/^1526/-1594/2/2
!!!OCY: Italia
!!!AGN: Mass (Paraphrase)
!!!AST: renaissance, vocal
!!!ASW: Antiphon
!!!PWK: Masses, Book 11
!!!RNB: Cadence finals: C
!!!YOR: Le Opere Complete, v. 28, p. 148
!!!YOO: Rome, Italy: Fratelli Scalera
!!!END: 1992//
!!!EED: John Miller
!!!YEC: Copyright 2000, John Miller
!!!YEN: United States of America
!!!YEM: Rights to all derivative electronic formats reserved.
!!!YEM: Refer to licensing agreement for further details.
!!!YEM: This file must be accompanied by the licensing agreement.
!!!YEM: A copy of the licensing agreement may be found at http://www.music-cog.ohio-state.edu/HumdrumDatabases/Palestrina/license.txt
!!!EMD: converted to Humdrum by Bret Aarden
